pics/instagram_rounf_full.svg

<svg width="144" height="144" viewBox="0 0 144 144" fill="none" xmlns="http://www.w3.org/2000/svg">
<path d="M92.2674 50.849H83.3525V60.038H92.2674V50.849Z" fill="#FDEF9C"/>
<path d="M86.7961 71.899C86.7961 80.062 80.1579 86.704 71.9996 86.704C63.8403 86.704 57.2021 80.062 57.2021 71.899C57.2021 69.69 57.7018 67.599 58.5723 65.714H48.7939V91.128C48.7939 93.435 50.6699 95.312 52.9755 95.312H91.0236C93.3293 95.312 95.2052 93.435 95.2052 91.128V65.715H85.4258C86.2963 67.6 86.7961 69.69 86.7961 71.899Z" fill="#FDEF9C"/>
<path d="M72.0006 80.704C76.8518 80.704 80.8006 76.754 80.8006 71.899C80.8006 69.49 79.8271 67.306 78.255 65.714H65.7442C64.1731 67.305 63.1997 69.49 63.1997 71.899C63.1997 76.754 67.1474 80.704 72.0006 80.704Z" fill="#FDEF9C"/>
<path d="M71.9994 14.165C40.0778 14.165 14.1997 40.059 14.1997 71.999C14.1997 103.938 40.0778 129.835 71.9994 129.835C103.921 129.835 129.801 103.939 129.801 71.999C129.8 40.059 103.921 14.165 71.9994 14.165ZM101.202 91.129C101.202 96.744 96.6362 101.313 91.0234 101.313H52.9754C47.3636 101.313 42.7972 96.745 42.7972 91.129V52.884C42.7972 47.269 47.3626 42.7 52.9754 42.7H91.0234C96.6352 42.7 101.202 47.268 101.202 52.884V91.129Z" fill="#FDEF9C"/>
</svg>

<?xml version="1.0" encoding="UTF-8"?>
<!DOCTYPE svg PUBLIC "-//W3C//DTD SVG 1.1//EN" "http://www.w3.org/Graphics/SVG/1.1/DTD/svg11.dtd">
<svg xmlns="http://www.w3.org/2000/svg" xmlns:xlink="http://www.w3.org/1999/xlink" version="1.1" id="Instagram" x="0px" y="0px" width="144.083px" height="144px" viewBox="0 0 144.083 144" enable-background="new 0 0 144.083 144" xml:space="preserve">
<rect x="83.401" y="50.849" width="8.92" height="9.189"/>
<path d="M86.846,71.899c0,8.163-6.642,14.805-14.805,14.805c-8.164,0-14.806-6.642-14.806-14.805c0-2.209,0.5-4.3,1.371-6.185  h-9.784v25.414c0,2.307,1.877,4.184,4.184,4.184h38.07c2.307,0,4.184-1.877,4.184-4.184V65.715h-9.785  C86.346,67.6,86.846,69.69,86.846,71.899z"/>
<path d="M72.042,80.704c4.854,0,8.805-3.95,8.805-8.805c0-2.409-0.974-4.593-2.547-6.185H65.782  c-1.572,1.591-2.546,3.776-2.546,6.185C63.236,76.754,67.186,80.704,72.042,80.704z"/>
<path d="M72.041,14.165c-31.94,0-57.833,25.894-57.833,57.834c0,31.939,25.893,57.836,57.833,57.836s57.835-25.896,57.835-57.836  C129.875,40.059,103.981,14.165,72.041,14.165z M101.26,91.129c0,5.615-4.568,10.184-10.184,10.184h-38.07  c-5.615,0-10.184-4.568-10.184-10.184V52.884c0-5.615,4.568-10.184,10.184-10.184h38.07c5.615,0,10.184,4.568,10.184,10.184V91.129z  "/>

	
	
	
	<metadata>
		<rdf:RDF xmlns:rdf="http://www.w3.org/1999/02/22-rdf-syntax-ns#" xmlns:rdfs="http://www.w3.org/2000/01/rdf-schema#" xmlns:dc="http://purl.org/dc/elements/1.1/">
			<rdf:Description about="https://iconscout.com/legal#licenses" dc:title="Instagram" dc:description="Instagram" dc:publisher="Iconscout" dc:date="2017-03-22" dc:format="image/svg+xml" dc:language="en">
				<dc:creator>
					<rdf:Bag>
						<rdf:li/>
					</rdf:Bag>
				</dc:creator>
			</rdf:Description>
		</rdf:RDF>
    </metadata></svg>
